X: 542
M:3/2
L:1/8
K:GMin
EGFE DFED C3B | ABcd c3C DEFD | EGFE DEFD C3c | FBAc B3B, DEFD ||
E2G2_AGFE DEFD | CcBd c3C DEFD | E2G2_AGFE DEFD | B,BAc B3B, DEFD ||

